; generated by PrusaSlicer 2.3.3+win64 on 2021-08-09 at 10:36:16 UTC

; 

; external perimeters extrusion width = 0.45mm
; perimeters extrusion width = 0.45mm
; infill extrusion width = 0.45mm
; solid infill extrusion width = 0.45mm
; top infill extrusion width = 0.40mm
; support material extrusion width = 0.35mm
; first layer extrusion width = 0.42mm

M73 P0 R61
M73 Q0 S62
M201 X1000 Y1000 Z200 E5000 ; sets maximum accelerations, mm/sec^2
M203 X200 Y200 Z12 E120 ; sets maximum feedrates, mm/sec
M204 P1250 R1250 T1250 ; sets acceleration (P, T) and retract acceleration (R), mm/sec^2
M205 X8.00 Y8.00 Z0.40 E4.50 ; sets the jerk limits, mm/sec
M205 S0 T0 ; sets the minimum extruding and travel feed rate, mm/sec
M107
;TYPE:Custom
M862.3 P "MK3S" ; printer model check
M862.1 P0.4 ; nozzle diameter check
M115 U3.10.0 ; tell printer latest fw version
G90 ; use absolute coordinates
M83 ; extruder relative mode
M104 S230 ; set extruder temp
M140 S85 ; set bed temp
M190 S85 ; wait for bed temp
M109 S230 ; wait for extruder temp
G28 W ; home all without mesh bed level
G80 ; mesh bed leveling
G1 Y-3.0 F1000.0 ; go outside print area
G92 E0.0
G1 X60.0 E9.0 F1000.0 ; intro line
G1 X100.0 E12.5 F1000.0 ; intro line
G92 E0.0
M221 S95

; Don't change E values below. Excessive value can damage the printer.

M907 E538 ; set extruder motor current
G21 ; set units to millimeters
G90 ; use absolute coordinates
M83 ; use relative distances for extrusion
M900 K0.08 ; Filament gcode LA 1.5
M900 K45 ; Filament gcode LA 1.0
;LAYER_CHANGE
;Z:0.2
;HEIGHT:0.2
;BEFORE_LAYER_CHANGE
G92 E0.0
;0.2


G1 E-1.00000 F2100.000
G1 Z0.200 F10800.000
;AFTER_LAYER_CHANGE
;0.2
; printing object SensorCover.stl id:0 copy 0
G1 Z0.400
G1 X85.784 Y85.330
G1 Z0.200
G1 E1.00000 F2100.000
M204 S1000
;TYPE:Support material
;WIDTH:0.42
G1 F1200.000
G1 X85.784 Y124.500 E1.22816
G1 X86.538 Y124.500 E0.02365
G1 X86.538 Y85.500 E1.22284
G1 X87.292 Y85.500 E0.02365
G1 X87.292 Y124.670 E1.22816
G1 X94.834 Y121.344 F10800.000
G1 F1200.000
G1 X94.834 Y124.500 E0.09897
G1 X94.079 Y124.500 E0.02365
G1 X94.079 Y121.514 E0.09365
G1 X93.325 Y121.514 E0.02365
G1 X93.325 Y124.500 E0.09365
G1 X92.571 Y124.500 E0.02365
G1 X92.571 Y121.514 E0.09365
G1 X91.817 Y121.514 E0.02365
G1 X91.817 Y124.500 E0.09365
G1 X91.063 Y124.500 E0.02365
G1 X91.063 Y121.514 E0.09365
G1 X90.309 Y121.514 E0.02365
G1 X90.309 Y124.500 E0.09365
G1 X89.555 Y124.500 E0.02365
G1 X89.555 Y121.514 E0.09365
G1 X88.829 Y121.514 E0.02276
G1 X88.800 Y121.485 E0.00126
G1 X88.800 Y124.500 E0.09454
G1 X88.046 Y124.500 E0.02365
G1 X88.046 Y85.500 E1.22284
G1 X88.800 Y85.500 E0.02365
G1 X88.800 Y116.515 E0.97246
G1 X88.829 Y116.486 E0.00126
G1 X89.555 Y116.486 E0.02276
G1 X89.555 Y85.500 E0.97157
G1 X90.309 Y85.500 E0.02365
G1 X90.309 Y116.486 E0.97157
G1 X91.063 Y116.486 E0.02365
G1 X91.063 Y85.500 E0.97157
G1 X91.817 Y85.500 E0.02365
G1 X91.817 Y116.486 E0.97157
G1 X92.571 Y116.486 E0.02365
G1 X92.571 Y85.500 E0.97157
G1 X93.325 Y85.500 E0.02365
G1 X93.325 Y116.486 E0.97157
G1 X94.079 Y116.486 E0.02365
G1 X94.079 Y85.500 E0.97157
G1 X94.834 Y85.500 E0.02365
G1 X94.834 Y116.486 E0.97157
G1 X95.588 Y116.486 E0.02365
G1 X95.588 Y88.807 E0.86788
G1 X96.342 Y88.807 E0.02365
G1 X96.342 Y116.486 E0.86788
G1 X97.096 Y116.486 E0.02365
G1 X97.096 Y88.807 E0.86788
G1 X97.850 Y88.807 E0.02365
G1 X97.850 Y116.486 E0.86788
M73 P1 R61
M73 Q1 S61
G1 X98.604 Y116.486 E0.02365
G1 X98.604 Y111.956 E0.14204
G1 X99.359 Y111.956 E0.02365
G1 X99.359 Y116.486 E0.14204
G1 X100.113 Y116.486 E0.02365
G1 X100.113 Y111.956 E0.14204
G1 X100.867 Y111.956 E0.02365
G1 X100.867 Y116.486 E0.14204
G1 X101.621 Y116.486 E0.02365
G1 X101.621 Y111.956 E0.14204
G1 X102.375 Y111.956 E0.02365
G1 X102.375 Y116.486 E0.14204
G1 X103.129 Y116.486 E0.02365
G1 X103.129 Y111.956 E0.14204
G1 X103.884 Y111.956 E0.02365
G1 X103.884 Y116.486 E0.14204
G1 X104.638 Y116.486 E0.02365
G1 X104.638 Y111.956 E0.14204
G1 X105.392 Y111.956 E0.02365
G1 X105.392 Y116.486 E0.14204
G1 X106.146 Y116.486 E0.02365
G1 X106.146 Y111.956 E0.14204
G1 X106.900 Y111.956 E0.02365
G1 X106.900 Y116.486 E0.14204
G1 X107.654 Y116.486 E0.02365
G1 X107.654 Y111.956 E0.14204
G1 X108.409 Y111.956 E0.02365
G1 X108.409 Y116.486 E0.14204
G1 X109.163 Y116.486 E0.02365
G1 X109.163 Y111.956 E0.14204
G1 X109.917 Y111.956 E0.02365
G1 X109.917 Y116.486 E0.14204
G1 X110.671 Y116.486 E0.02365
G1 X110.671 Y111.956 E0.14204
G1 X111.425 Y111.956 E0.02365
G1 X111.425 Y116.486 E0.14204
G1 X112.179 Y116.486 E0.02365
G1 X112.179 Y111.956 E0.14204
G1 X112.933 Y111.956 E0.02365
G1 X112.933 Y116.486 E0.14204
G1 X113.688 Y116.486 E0.02365
G1 X113.688 Y111.956 E0.14204
G1 X114.442 Y111.956 E0.02365
G1 X114.442 Y116.486 E0.14204
G1 X115.196 Y116.486 E0.02365
G1 X115.196 Y111.956 E0.14204
G1 X115.950 Y111.956 E0.02365
G1 X115.950 Y116.486 E0.14204
G1 X116.704 Y116.486 E0.02365
G1 X116.704 Y111.956 E0.14204
G1 X117.458 Y111.956 E0.02365
G1 X117.458 Y116.486 E0.14204
G1 X118.213 Y116.486 E0.02365
G1 X118.213 Y111.956 E0.14204
G1 X118.967 Y111.956 E0.02365
G1 X118.967 Y116.486 E0.14204
G1 X119.721 Y116.486 E0.02365
G1 X119.721 Y111.956 E0.14204
G1 X120.475 Y111.956 E0.02365
G1 X120.475 Y116.486 E0.14204
G1 X121.229 Y116.486 E0.02365
G1 X121.229 Y111.956 E0.14204
G1 X121.983 Y111.956 E0.02365
G1 X121.983 Y116.486 E0.14204
G1 X122.738 Y116.486 E0.02365
G1 X122.738 Y111.956 E0.14204
G1 X123.492 Y111.956 E0.02365
G1 X123.492 Y116.486 E0.14204
G1 X124.246 Y116.486 E0.02365
G1 X124.246 Y111.956 E0.14204
G1 X125.000 Y111.956 E0.02365
G1 X125.000 Y116.486 E0.14204
G1 X125.754 Y116.486 E0.02365
G1 X125.754 Y98.728 E0.55680
G1 X126.508 Y98.728 E0.02365
G1 X126.508 Y116.486 E0.55680
G1 X127.262 Y116.486 E0.02365
G1 X127.262 Y98.728 E0.55680
G1 X128.017 Y98.728 E0.02365
G1 X128.017 Y116.486 E0.55680
G1 X128.771 Y116.486 E0.02365
G1 X128.771 Y98.728 E0.55680
G1 X129.525 Y98.728 E0.02365
G1 X129.525 Y116.486 E0.55680
G1 X130.279 Y116.486 E0.02365
G1 X130.279 Y98.728 E0.55680
G1 X131.033 Y98.728 E0.02365
G1 X131.033 Y116.486 E0.55680
G1 X131.787 Y116.486 E0.02365
G1 X131.787 Y102.035 E0.45311
G1 X132.542 Y102.035 E0.02365
G1 X132.542 Y116.486 E0.45311
G1 X133.296 Y116.486 E0.02365
G1 X133.296 Y102.035 E0.45311
G1 X134.050 Y102.035 E0.02365
G1 X134.050 Y116.486 E0.45311
G1 X134.804 Y116.486 E0.02365
G1 X134.804 Y102.035 E0.45311
G1 X135.558 Y102.035 E0.02365
G1 X135.558 Y116.486 E0.45311
G1 X136.312 Y116.486 E0.02365
G1 X136.312 Y102.035 E0.45311
M73 P1 R60
G1 X137.067 Y102.035 E0.02365
G1 X137.067 Y116.486 E0.45311
G1 X137.821 Y116.486 E0.02365
G1 X137.821 Y102.035 E0.45311
G1 X138.575 Y102.035 E0.02365
G1 X138.575 Y116.486 E0.45311
G1 X139.329 Y116.486 E0.02365
G1 X139.329 Y102.035 E0.45311
G1 X140.083 Y102.035 E0.02365
G1 X140.083 Y116.486 E0.45311
G1 X140.837 Y116.486 E0.02365
G1 X140.837 Y102.035 E0.45311
G1 X141.193 Y102.035 E0.01116
G1 X141.193 Y105.342 E0.10369
G1 X141.591 Y105.342 E0.01249
G1 X141.591 Y116.486 E0.34942
G1 X142.346 Y116.486 E0.02365
G1 X142.346 Y105.342 E0.34942
G1 X143.100 Y105.342 E0.02365
G1 X143.100 Y116.486 E0.34942
G1 X143.854 Y116.486 E0.02365
G1 X143.854 Y105.342 E0.34942
G1 X144.608 Y105.342 E0.02365
G1 X144.608 Y116.486 E0.34942
G1 X145.362 Y116.486 E0.02365
G1 X145.362 Y105.342 E0.34942
G1 X146.116 Y105.342 E0.02365
G1 X146.116 Y116.486 E0.34942
G1 X146.871 Y116.486 E0.02365
G1 X146.871 Y105.342 E0.34942
G1 X147.625 Y105.342 E0.02365
G1 X147.625 Y116.486 E0.34942
G1 X148.271 Y116.486 E0.02027
G1 X148.379 Y116.594 E0.00477
G1 X148.379 Y108.649 E0.24911
G1 X149.133 Y108.649 E0.02365
G1 X149.133 Y121.193 E0.39331
G1 X149.887 Y121.193 E0.02365
G1 X149.887 Y108.649 E0.39331
G1 X150.641 Y108.649 E0.02365
G1 X150.641 Y121.193 E0.39331
G1 X151.396 Y121.193 E0.02365
G1 X151.396 Y108.649 E0.39331
G1 X152.150 Y108.649 E0.02365
G1 X152.150 Y121.193 E0.39331
M73 P2 R60
M73 Q2 S61
G1 X152.904 Y121.193 E0.02365
G1 X152.904 Y108.649 E0.39331
G1 X153.658 Y108.649 E0.02365
G1 X153.658 Y121.193 E0.39331
G1 X154.412 Y121.193 E0.02365
G1 X154.412 Y108.649 E0.39331
G1 X155.166 Y108.649 E0.02365
G1 X155.166 Y121.193 E0.39331
G1 X155.921 Y121.193 E0.02365
G1 X155.921 Y108.649 E0.39331
G1 X156.675 Y108.649 E0.02365
G1 X156.675 Y121.193 E0.39331
G1 X157.429 Y121.193 E0.02365
G1 X157.429 Y108.649 E0.39331
G1 X158.183 Y108.649 E0.02365
G1 X158.183 Y121.193 E0.39331
G1 X158.937 Y121.193 E0.02365
G1 X158.937 Y108.649 E0.39331
G1 X159.691 Y108.649 E0.02365
G1 X159.691 Y121.193 E0.39331
G1 X160.445 Y121.193 E0.02365
G1 X160.445 Y108.649 E0.39331
G1 X161.200 Y108.649 E0.02365
G1 X161.200 Y121.193 E0.39331
G1 X161.954 Y121.193 E0.02365
G1 X161.954 Y108.649 E0.39331
G1 X162.708 Y108.649 E0.02365
G1 X162.708 Y121.193 E0.39331
G1 X163.462 Y121.193 E0.02365
G1 X163.462 Y108.649 E0.39331
G1 X164.216 Y108.649 E0.02365
G1 X164.216 Y121.363 E0.39863
;WIPE_START
G1 F8640.000
G1 X164.216 Y117.249 E-0.95000
;WIPE_END
G1 E-0.05000 F2100.000
G1 Z0.400 F10800.000
G1 X125.000 Y111.442
G1 Z0.200
G1 E1.00000 F2100.000
G1 F1200.000
G1 X125.000 Y98.728 E0.39863
G1 X124.246 Y98.728 E0.02365
G1 X124.246 Y111.272 E0.39331
G1 X123.492 Y111.272 E0.02365
G1 X123.492 Y98.728 E0.39331
G1 X122.738 Y98.728 E0.02365
G1 X122.738 Y111.272 E0.39331
G1 X121.983 Y111.272 E0.02365
G1 X121.983 Y98.728 E0.39331
G1 X121.351 Y98.728 E0.01984
G1 X121.351 Y95.421 E0.10369
G1 X121.229 Y95.421 E0.00381
G1 X121.229 Y111.272 E0.49700
G1 X120.475 Y111.272 E0.02365
G1 X120.475 Y95.421 E0.49700
G1 X119.721 Y95.421 E0.02365
G1 X119.721 Y111.272 E0.49700
G1 X118.967 Y111.272 E0.02365
G1 X118.967 Y95.421 E0.49700
G1 X118.213 Y95.421 E0.02365
G1 X118.213 Y111.272 E0.49700
G1 X117.458 Y111.272 E0.02365
G1 X117.458 Y95.421 E0.49700
G1 X116.704 Y95.421 E0.02365
G1 X116.704 Y111.272 E0.49700
G1 X115.950 Y111.272 E0.02365
G1 X115.950 Y95.421 E0.49700
M73 Q2 S60
G1 X115.196 Y95.421 E0.02365
G1 X115.196 Y107.965 E0.39331
G1 X114.442 Y107.965 E0.02365
G1 X114.442 Y95.421 E0.39331
G1 X113.688 Y95.421 E0.02365
G1 X113.688 Y107.965 E0.39331
G1 X112.933 Y107.965 E0.02365
G1 X112.933 Y95.421 E0.39331
G1 X112.179 Y95.421 E0.02365
G1 X112.179 Y107.965 E0.39331
G1 X111.425 Y107.965 E0.02365
G1 X111.425 Y92.114 E0.49700
G1 X110.671 Y92.114 E0.02365
G1 X110.671 Y107.965 E0.49700
G1 X109.917 Y107.965 E0.02365
G1 X109.917 Y92.114 E0.49700
G1 X109.163 Y92.114 E0.02365
G1 X109.163 Y107.965 E0.49700
G1 X108.409 Y107.965 E0.02365
G1 X108.409 Y92.114 E0.49700
G1 X107.654 Y92.114 E0.02365
G1 X107.654 Y107.965 E0.49700
G1 X106.900 Y107.965 E0.02365
G1 X106.900 Y92.114 E0.49700
G1 X106.146 Y92.114 E0.02365
G1 X106.146 Y107.965 E0.49700
G1 X105.500 Y107.965 E0.02027
G1 X105.500 Y104.658 E0.10369
G1 X105.392 Y104.658 E0.00338
G1 X105.392 Y92.114 E0.39331
G1 X104.638 Y92.114 E0.02365
G1 X104.638 Y104.658 E0.39331
G1 X103.884 Y104.658 E0.02365
G1 X103.884 Y92.114 E0.39331
G1 X103.129 Y92.114 E0.02365
G1 X103.129 Y104.658 E0.39331
G1 X102.375 Y104.658 E0.02365
G1 X102.375 Y92.114 E0.39331
G1 X101.621 Y92.114 E0.02365
G1 X101.621 Y104.658 E0.39331
G1 X100.867 Y104.658 E0.02365
G1 X100.867 Y88.807 E0.49700
M73 P3 R60
M73 Q3 S60
G1 X100.113 Y88.807 E0.02365
G1 X100.113 Y104.658 E0.49700
G1 X99.359 Y104.658 E0.02365
G1 X99.359 Y88.807 E0.49700
G1 X98.604 Y88.807 E0.02365
G1 X98.604 Y104.828 E0.50232
;WIPE_START
G1 F8640.000
G1 X98.604 Y100.713 E-0.95000
;WIPE_END
G1 E-0.05000 F2100.000
G1 Z0.400 F10800.000
G1 X89.787 Y117.687
G1 Z0.200
G1 E1.00000 F2100.000
;TYPE:Perimeter
G1 F1200.000
G1 X147.313 Y117.687 E1.80368
G1 X147.313 Y120.313 E0.08233
G1 X89.787 Y120.313 E1.80368
M73 P3 R59
G1 X89.787 Y117.747 E0.08045
G1 X89.410 Y117.310 F10800.000
;TYPE:External perimeter
G1 F1200.000
G1 X147.690 Y117.310 E1.82733
G1 X147.690 Y120.690 E0.10598
G1 X89.410 Y120.690 E1.82733
G1 X89.410 Y117.370 E0.10410
G1 X89.810 Y117.318 F10800.000
;WIPE_START
G1 F8640.000
G1 X93.524 Y117.366 E-0.95000
;WIPE_END
G1 E-0.05000 F2100.000
G1 Z0.400 F10800.000
G1 X146.437 Y117.800
G1 Z0.200
G1 E1.00000 F2100.000
;TYPE:Solid infill
;WIDTH:0.420304
G1 F1200.000
G1 X147.030 Y118.393 E0.02633
G1 X147.030 Y118.927 E0.01675
G1 X146.073 Y117.970 E0.04248
G1 X145.539 Y117.970 E0.01675
G1 X147.030 Y119.461 E0.06616
G1 X147.030 Y119.995 E0.01675
G1 X145.005 Y117.970 E0.08985
G1 X144.472 Y117.970 E0.01675
G1 X146.532 Y120.030 E0.09143
G1 X145.998 Y120.030 E0.01675
G1 X143.938 Y117.970 E0.09143
G1 X143.404 Y117.970 E0.01675
G1 X145.465 Y120.030 E0.09143
G1 X144.931 Y120.030 E0.01675
G1 X142.871 Y117.970 E0.09143
G1 X142.337 Y117.970 E0.01675
G1 X144.397 Y120.030 E0.09143
G1 X143.864 Y120.030 E0.01675
G1 X141.803 Y117.970 E0.09143
G1 X141.270 Y117.970 E0.01675
G1 X143.330 Y120.030 E0.09143
G1 X142.796 Y120.030 E0.01675
G1 X140.736 Y117.970 E0.09143
G1 X140.202 Y117.970 E0.01675
G1 X142.262 Y120.030 E0.09143
G1 X141.729 Y120.030 E0.01675
G1 X139.668 Y117.970 E0.09143
G1 X139.135 Y117.970 E0.01675
G1 X141.195 Y120.030 E0.09143
G1 X140.661 Y120.030 E0.01675
G1 X138.601 Y117.970 E0.09143
G1 X138.067 Y117.970 E0.01675
G1 X140.128 Y120.030 E0.09143
G1 X139.594 Y120.030 E0.01675
G1 X137.534 Y117.970 E0.09143
G1 X137.000 Y117.970 E0.01675
G1 X139.060 Y120.030 E0.09143
G1 X138.526 Y120.030 E0.01675
G1 X136.466 Y117.970 E0.09143
G1 X135.933 Y117.970 E0.01675
G1 X137.993 Y120.030 E0.09143
G1 X137.459 Y120.030 E0.01675
G1 X135.399 Y117.970 E0.09143
G1 X134.865 Y117.970 E0.01675
G1 X136.925 Y120.030 E0.09143
G1 X136.392 Y120.030 E0.01675
G1 X134.331 Y117.970 E0.09143
G1 X133.798 Y117.970 E0.01675
G1 X135.858 Y120.030 E0.09143
G1 X135.324 Y120.030 E0.01675
G1 X133.264 Y117.970 E0.09143
G1 X132.730 Y117.970 E0.01675
G1 X134.791 Y120.030 E0.09143
G1 X134.257 Y120.030 E0.01675
G1 X132.197 Y117.970 E0.09143
G1 X131.663 Y117.970 E0.01675
G1 X133.723 Y120.030 E0.09143
G1 X133.189 Y120.030 E0.01675
G1 X131.129 Y117.970 E0.09143
G1 X130.596 Y117.970 E0.01675
G1 X132.656 Y120.030 E0.09143
G1 X132.122 Y120.030 E0.01675
G1 X130.062 Y117.970 E0.09143
G1 X129.528 Y117.970 E0.01675
G1 X131.588 Y120.030 E0.09143
G1 X131.055 Y120.030 E0.01675
G1 X128.994 Y117.970 E0.09143
G1 X128.461 Y117.970 E0.01675
G1 X130.521 Y120.030 E0.09143
G1 X129.987 Y120.030 E0.01675
G1 X127.927 Y117.970 E0.09143
G1 X127.393 Y117.970 E0.01675
G1 X129.454 Y120.030 E0.09143
G1 X128.920 Y120.030 E0.01675
G1 X126.860 Y117.970 E0.09143
G1 X126.326 Y117.970 E0.01675
G1 X128.386 Y120.030 E0.09143
G1 X127.852 Y120.030 E0.01675
G1 X125.792 Y117.970 E0.09143
G1 X125.259 Y117.970 E0.01675
G1 X127.319 Y120.030 E0.09143
G1 X126.785 Y120.030 E0.01675
G1 X124.725 Y117.970 E0.09143
G1 X124.191 Y117.970 E0.01675
G1 X126.251 Y120.030 E0.09143
G1 X125.718 Y120.030 E0.01675
G1 X123.657 Y117.970 E0.09143
G1 X123.124 Y117.970 E0.01675
G1 X125.184 Y120.030 E0.09143
G1 X124.650 Y120.030 E0.01675
G1 X122.590 Y117.970 E0.09143
G1 X122.056 Y117.970 E0.01675
G1 X124.117 Y120.030 E0.09143
G1 X123.583 Y120.030 E0.01675
G1 X121.523 Y117.970 E0.09143
G1 X120.989 Y117.970 E0.01675
G1 X123.049 Y120.030 E0.09143
G1 X122.515 Y120.030 E0.01675
G1 X120.455 Y117.970 E0.09143
G1 X119.921 Y117.970 E0.01675
G1 X121.982 Y120.030 E0.09143
G1 X121.448 Y120.030 E0.01675
G1 X119.388 Y117.970 E0.09143
G1 X118.854 Y117.970 E0.01675
G1 X120.914 Y120.030 E0.09143
G1 X120.381 Y120.030 E0.01675
G1 X118.320 Y117.970 E0.09143
G1 X117.787 Y117.970 E0.01675
G1 X119.847 Y120.030 E0.09143
G1 X119.313 Y120.030 E0.01675
G1 X117.253 Y117.970 E0.09143
G1 X116.719 Y117.970 E0.01675
G1 X118.780 Y120.030 E0.09143
G1 X118.246 Y120.030 E0.01675
G1 X116.186 Y117.970 E0.09143
G1 X115.652 Y117.970 E0.01675
G1 X117.712 Y120.030 E0.09143
G1 X117.178 Y120.030 E0.01675
G1 X115.118 Y117.970 E0.09143
G1 X114.584 Y117.970 E0.01675
G1 X116.645 Y120.030 E0.09143
G1 X116.111 Y120.030 E0.01675
G1 X114.051 Y117.970 E0.09143
G1 X113.517 Y117.970 E0.01675
G1 X115.577 Y120.030 E0.09143
G1 X115.044 Y120.030 E0.01675
G1 X112.983 Y117.970 E0.09143
G1 X112.450 Y117.970 E0.01675
G1 X114.510 Y120.030 E0.09143
G1 X113.976 Y120.030 E0.01675
G1 X111.916 Y117.970 E0.09143
G1 X111.382 Y117.970 E0.01675
G1 X113.443 Y120.030 E0.09143
G1 X112.909 Y120.030 E0.01675
G1 X110.849 Y117.970 E0.09143
