; generated by PrusaSlicer 2.3.3+win64 on 2021-08-12 at 09:06:55 UTC

; 

; external perimeters extrusion width = 0.45mm
; perimeters extrusion width = 0.45mm
; infill extrusion width = 0.45mm
; solid infill extrusion width = 0.45mm
; top infill extrusion width = 0.40mm
; support material extrusion width = 0.35mm
; first layer extrusion width = 0.42mm

M73 P0 R52
M73 Q0 S52
M201 X1000 Y1000 Z200 E5000 ; sets maximum accelerations, mm/sec^2
M203 X200 Y200 Z12 E120 ; sets maximum feedrates, mm/sec
M204 P1250 R1250 T1250 ; sets acceleration (P, T) and retract acceleration (R), mm/sec^2
M205 X8.00 Y8.00 Z0.40 E4.50 ; sets the jerk limits, mm/sec
M205 S0 T0 ; sets the minimum extruding and travel feed rate, mm/sec
M107
;TYPE:Custom
M862.3 P "MK3S" ; printer model check
M862.1 P0.4 ; nozzle diameter check
M115 U3.10.0 ; tell printer latest fw version
G90 ; use absolute coordinates
M83 ; extruder relative mode
M104 S230 ; set extruder temp
M140 S85 ; set bed temp
M190 S85 ; wait for bed temp
M109 S230 ; wait for extruder temp
G28 W ; home all without mesh bed level
G80 ; mesh bed leveling
G1 Y-3.0 F1000.0 ; go outside print area
G92 E0.0
G1 X60.0 E9.0 F1000.0 ; intro line
G1 X100.0 E12.5 F1000.0 ; intro line
G92 E0.0
M221 S95

; Don't change E values below. Excessive value can damage the printer.

M907 E538 ; set extruder motor current
G21 ; set units to millimeters
G90 ; use absolute coordinates
M83 ; use relative distances for extrusion
M900 K0.08 ; Filament gcode LA 1.5
M900 K45 ; Filament gcode LA 1.0
;LAYER_CHANGE
;Z:0.2
;HEIGHT:0.2
;BEFORE_LAYER_CHANGE
G92 E0.0
;0.2


G1 E-1.00000 F2100.000
G1 Z0.200 F10800.000
;AFTER_LAYER_CHANGE
;0.2
; printing object SensorCover.stl id:0 copy 0
G1 Z0.400
G1 X85.784 Y88.023
G1 Z0.200
G1 E1.00000 F2100.000
M204 S1000
;TYPE:Support material
;WIDTH:0.42
G1 F1200.000
G1 X85.784 Y121.807 E1.05929
G1 X86.538 Y121.807 E0.02365
G1 X86.538 Y88.193 E1.05397
G1 X87.292 Y88.193 E0.02365
G1 X87.292 Y121.977 E1.05929
G1 X95.588 Y121.977 F10800.000
G1 F1200.000
G1 X95.588 Y118.414 E0.11173
G1 X94.834 Y118.414 E0.02365
G1 X94.834 Y121.807 E0.10641
G1 X94.079 Y121.807 E0.02365
G1 X94.079 Y118.414 E0.10641
G1 X93.325 Y118.414 E0.02365
G1 X93.325 Y121.807 E0.10641
G1 X92.571 Y121.807 E0.02365
G1 X92.571 Y118.414 E0.10641
G1 X91.817 Y118.414 E0.02365
G1 X91.817 Y121.807 E0.10641
G1 X91.063 Y121.807 E0.02365
G1 X91.063 Y118.414 E0.10641
G1 X90.309 Y118.414 E0.02365
G1 X90.309 Y121.807 E0.10641
G1 X89.555 Y121.807 E0.02365
G1 X89.555 Y118.414 E0.10641
G1 X88.829 Y118.414 E0.02276
G1 X88.800 Y118.385 E0.00126
G1 X88.800 Y121.807 E0.10730
G1 X88.046 Y121.807 E0.02365
G1 X88.046 Y88.193 E1.05397
G1 X88.800 Y88.193 E0.02365
G1 X88.800 Y91.615 E0.10730
G1 X88.829 Y91.586 E0.00126
G1 X89.555 Y91.586 E0.02276
G1 X89.555 Y88.193 E0.10641
G1 X90.309 Y88.193 E0.02365
G1 X90.309 Y91.586 E0.10641
G1 X91.063 Y91.586 E0.02365
G1 X91.063 Y88.193 E0.10641
G1 X91.817 Y88.193 E0.02365
G1 X91.817 Y91.586 E0.10641
G1 X92.571 Y91.586 E0.02365
G1 X92.571 Y88.193 E0.10641
G1 X93.325 Y88.193 E0.02365
G1 X93.325 Y91.586 E0.10641
G1 X94.079 Y91.586 E0.02365
G1 X94.079 Y88.193 E0.10641
G1 X94.834 Y88.193 E0.02365
G1 X94.834 Y91.586 E0.10641
G1 X95.588 Y91.586 E0.02365
G1 X95.588 Y88.023 E0.11173
;WIPE_START
G1 F8640.000
G1 X95.588 Y91.586 E-0.82284
G1 X95.037 Y91.586 E-0.12716
;WIPE_END
G1 E-0.05000 F2100.000
G1 Z0.400 F10800.000
G1 X89.787 Y92.787
G1 Z0.200
G1 E1.00000 F2100.000
;TYPE:Perimeter
G1 F1200.000
G1 X147.674 Y92.787 E1.81500
G1 X159.909 Y105.022 E0.54251
G1 X148.655 Y117.213 E0.52020
G1 X89.787 Y117.213 E1.84577
M73 P0 R51
G1 X89.787 Y92.847 E0.76397
G1 X89.410 Y92.410 F10800.000
;TYPE:External perimeter
G1 F1200.000
G1 X147.830 Y92.410 E1.83172
G1 X160.432 Y105.011 E0.55877
M73 P1 R51
M73 Q1 S52
G1 X148.820 Y117.590 E0.53673
G1 X89.410 Y117.590 E1.86277
G1 X89.410 Y92.470 E0.78762
G1 X89.806 Y92.463 F10800.000
;WIPE_START
G1 F8640.000
G1 X93.524 Y92.466 E-0.95000
;WIPE_END
G1 E-0.05000 F2100.000
G1 Z0.400 F10800.000
G1 X147.386 Y92.900
G1 Z0.200
G1 E1.00000 F2100.000
;TYPE:Solid infill
;WIDTH:0.42185
G1 F1200.000
G1 X159.516 Y105.030 E0.54051
G1 X159.259 Y105.309 E0.01195
G1 X147.020 Y93.070 E0.54537
G1 X146.484 Y93.070 E0.01688
G1 X159.002 Y105.588 E0.55778
G1 X158.744 Y105.866 E0.01195
G1 X145.948 Y93.070 E0.57020
G1 X145.412 Y93.070 E0.01688
G1 X158.487 Y106.145 E0.58262
G1 X158.230 Y106.424 E0.01195
G1 X144.876 Y93.070 E0.59504
G1 X144.340 Y93.070 E0.01688
G1 X157.973 Y106.702 E0.60745
G1 X157.715 Y106.981 E0.01195
G1 X143.804 Y93.070 E0.61987
G1 X143.268 Y93.070 E0.01688
G1 X157.458 Y107.260 E0.63229
M73 Q1 S51
G1 X157.201 Y107.538 E0.01195
G1 X142.732 Y93.070 E0.64470
G1 X142.197 Y93.070 E0.01688
G1 X156.944 Y107.817 E0.65712
G1 X156.686 Y108.096 E0.01195
G1 X141.661 Y93.070 E0.66954
G1 X141.125 Y93.070 E0.01688
G1 X156.429 Y108.374 E0.68195
G1 X156.172 Y108.653 E0.01195
G1 X140.589 Y93.070 E0.69437
G1 X140.053 Y93.070 E0.01688
G1 X155.915 Y108.932 E0.70679
G1 X155.658 Y109.210 E0.01195
G1 X139.517 Y93.070 E0.71921
G1 X138.981 Y93.070 E0.01688
G1 X155.400 Y109.489 E0.73162
G1 X155.143 Y109.768 E0.01195
G1 X138.445 Y93.070 E0.74404
G1 X137.909 Y93.070 E0.01688
G1 X154.886 Y110.046 E0.75646
G1 X154.629 Y110.325 E0.01195
G1 X137.374 Y93.070 E0.76887
G1 X136.838 Y93.070 E0.01688
G1 X154.371 Y110.604 E0.78129
G1 X154.114 Y110.882 E0.01195
G1 X136.302 Y93.070 E0.79371
G1 X135.766 Y93.070 E0.01688
G1 X153.857 Y111.161 E0.80612
M73 P2 R51
M73 Q2 S51
G1 X153.600 Y111.440 E0.01195
G1 X135.230 Y93.070 E0.81854
G1 X134.694 Y93.070 E0.01688
G1 X153.343 Y111.718 E0.83096
G1 X153.085 Y111.997 E0.01195
G1 X134.158 Y93.070 E0.84338
G1 X133.622 Y93.070 E0.01688
G1 X152.828 Y112.276 E0.85579
G1 X152.571 Y112.554 E0.01195
G1 X133.086 Y93.070 E0.86821
G1 X132.551 Y93.070 E0.01688
G1 X152.314 Y112.833 E0.88063
G1 X152.056 Y113.112 E0.01195
G1 X132.015 Y93.070 E0.89304
G1 X131.479 Y93.070 E0.01688
G1 X151.799 Y113.390 E0.90546
G1 X151.542 Y113.669 E0.01195
G1 X130.943 Y93.070 E0.91788
G1 X130.407 Y93.070 E0.01688
G1 X151.285 Y113.948 E0.93029
G1 X151.027 Y114.226 E0.01195
G1 X129.871 Y93.070 E0.94271
G1 X129.335 Y93.070 E0.01688
G1 X150.770 Y114.505 E0.95513
G1 X150.513 Y114.784 E0.01195
G1 X128.799 Y93.070 E0.96754
G1 X128.263 Y93.070 E0.01688
G1 X150.256 Y115.062 E0.97996
G1 X149.999 Y115.341 E0.01195
G1 X127.728 Y93.070 E0.99238
G1 X127.192 Y93.070 E0.01688
G1 X149.741 Y115.620 E1.00480
M73 P2 R50
G1 X149.484 Y115.898 E0.01195
G1 X126.656 Y93.070 E1.01721
G1 X126.120 Y93.070 E0.01688
G1 X149.227 Y116.177 E1.02963
G1 X148.970 Y116.456 E0.01195
G1 X125.584 Y93.070 E1.04205
G1 X125.048 Y93.070 E0.01688
G1 X148.712 Y116.734 E1.05446
G1 X148.532 Y116.930 E0.00840
G1 X148.373 Y116.930 E0.00501
G1 X124.512 Y93.070 E1.06319
M73 P3 R50
M73 Q3 S51
G1 X123.976 Y93.070 E0.01688
G1 X147.837 Y116.930 E1.06319
G1 X147.301 Y116.930 E0.01688
G1 X123.441 Y93.070 E1.06319
G1 X122.905 Y93.070 E0.01688
G1 X146.765 Y116.930 E1.06319
G1 X146.229 Y116.930 E0.01688
G1 X122.369 Y93.070 E1.06320
G1 X121.833 Y93.070 E0.01688
G1 X145.693 Y116.930 E1.06320
G1 X145.157 Y116.930 E0.01688
G1 X121.297 Y93.070 E1.06320
G1 X120.761 Y93.070 E0.01688
G1 X144.621 Y116.930 E1.06320
M73 Q3 S50
G1 X144.085 Y116.930 E0.01688
G1 X120.225 Y93.070 E1.06320
G1 X119.689 Y93.070 E0.01688
G1 X143.550 Y116.930 E1.06320
G1 X143.014 Y116.930 E0.01688
G1 X119.153 Y93.070 E1.06320
G1 X118.618 Y93.070 E0.01688
G1 X142.478 Y116.930 E1.06319
G1 X141.942 Y116.930 E0.01688
G1 X118.082 Y93.070 E1.06319
G1 X117.546 Y93.070 E0.01688
G1 X141.406 Y116.930 E1.06319
G1 X140.870 Y116.930 E0.01688
G1 X117.010 Y93.070 E1.06319
G1 X116.474 Y93.070 E0.01688
G1 X140.334 Y116.930 E1.06319
G1 X139.798 Y116.930 E0.01688
G1 X115.938 Y93.070 E1.06319
G1 X115.402 Y93.070 E0.01688
G1 X139.262 Y116.930 E1.06319
G1 X138.727 Y116.930 E0.01688
G1 X114.866 Y93.070 E1.06319
M73 P4 R50
M73 Q4 S50
G1 X114.330 Y93.070 E0.01688
G1 X138.191 Y116.930 E1.06319
G1 X137.655 Y116.930 E0.01688
G1 X113.795 Y93.070 E1.06319
G1 X113.259 Y93.070 E0.01688
G1 X137.119 Y116.930 E1.06319
G1 X136.583 Y116.930 E0.01688
G1 X112.723 Y93.070 E1.06319
G1 X112.187 Y93.070 E0.01688
G1 X136.047 Y116.930 E1.06319
G1 X135.511 Y116.930 E0.01688
G1 X111.651 Y93.070 E1.06319
G1 X111.115 Y93.070 E0.01688
G1 X134.975 Y116.930 E1.06319
G1 X134.439 Y116.930 E0.01688
G1 X110.579 Y93.070 E1.06319
G1 X110.043 Y93.070 E0.01688
G1 X133.904 Y116.930 E1.06319
G1 X133.368 Y116.930 E0.01688
G1 X109.507 Y93.070 E1.06319
G1 X108.972 Y93.070 E0.01688
G1 X132.832 Y116.930 E1.06319
G1 X132.296 Y116.930 E0.01688
G1 X108.436 Y93.070 E1.06319
M73 P4 R49
G1 X107.900 Y93.070 E0.01688
G1 X131.760 Y116.930 E1.06319
G1 X131.224 Y116.930 E0.01688
G1 X107.364 Y93.070 E1.06319
G1 X106.828 Y93.070 E0.01688
G1 X130.688 Y116.930 E1.06319
G1 X130.152 Y116.930 E0.01688
G1 X106.292 Y93.070 E1.06319
G1 X105.756 Y93.070 E0.01688
G1 X129.616 Y116.930 E1.06319
G1 X129.081 Y116.930 E0.01688
G1 X105.220 Y93.070 E1.06319
M73 P5 R49
M73 Q5 S50
G1 X104.684 Y93.070 E0.01688
G1 X128.545 Y116.930 E1.06319
G1 X128.009 Y116.930 E0.01688
G1 X104.149 Y93.070 E1.06319
G1 X103.613 Y93.070 E0.01688
G1 X127.473 Y116.930 E1.06319
G1 X126.937 Y116.930 E0.01688
G1 X103.077 Y93.070 E1.06319
G1 X102.541 Y93.070 E0.01688
G1 X126.401 Y116.930 E1.06319
M73 Q5 S49
G1 X125.865 Y116.930 E0.01688
G1 X102.005 Y93.070 E1.06319
G1 X101.469 Y93.070 E0.01688
G1 X125.329 Y116.930 E1.06319
G1 X124.793 Y116.930 E0.01688
G1 X100.933 Y93.070 E1.06319
G1 X100.397 Y93.070 E0.01688
G1 X124.258 Y116.930 E1.06319
G1 X123.722 Y116.930 E0.01688
G1 X99.861 Y93.070 E1.06319
G1 X99.326 Y93.070 E0.01688
G1 X123.186 Y116.930 E1.06319
G1 X122.650 Y116.930 E0.01688
G1 X98.790 Y93.070 E1.06319
G1 X98.254 Y93.070 E0.01688
G1 X122.114 Y116.930 E1.06319
G1 X121.578 Y116.930 E0.01688
G1 X97.718 Y93.070 E1.06319
G1 X97.182 Y93.070 E0.01688
G1 X121.042 Y116.930 E1.06319
G1 X120.506 Y116.930 E0.01688
G1 X96.646 Y93.070 E1.06319
G1 X96.110 Y93.070 E0.01688
G1 X119.970 Y116.930 E1.06319
G1 X119.435 Y116.930 E0.01688
G1 X95.574 Y93.070 E1.06319
M73 P6 R49
M73 Q6 S49
G1 X95.038 Y93.070 E0.01688
G1 X118.899 Y116.930 E1.06319
G1 X118.363 Y116.930 E0.01688
G1 X94.503 Y93.070 E1.06319
G1 X93.967 Y93.070 E0.01688
G1 X117.827 Y116.930 E1.06319
G1 X117.291 Y116.930 E0.01688
G1 X93.431 Y93.070 E1.06319
G1 X92.895 Y93.070 E0.01688
G1 X116.755 Y116.930 E1.06319
G1 X116.219 Y116.930 E0.01688
G1 X92.359 Y93.070 E1.06319
G1 X91.823 Y93.070 E0.01688
G1 X115.683 Y116.930 E1.06319
G1 X115.147 Y116.930 E0.01688
G1 X91.287 Y93.070 E1.06319
G1 X90.751 Y93.070 E0.01688
G1 X114.612 Y116.930 E1.06319
G1 X114.076 Y116.930 E0.01688
G1 X90.215 Y93.070 E1.06320
G1 X90.070 Y93.070 E0.00459
G1 X90.070 Y93.460 E0.01230
G1 X113.540 Y116.930 E1.04580
M73 P6 R48
G1 X113.004 Y116.930 E0.01688
G1 X90.070 Y93.996 E1.02192
G1 X90.070 Y94.532 E0.01688
G1 X112.468 Y116.930 E0.99805
G1 X111.932 Y116.930 E0.01688
G1 X90.070 Y95.068 E0.97417
G1 X90.070 Y95.604 E0.01688
G1 X111.396 Y116.930 E0.95029
G1 X110.860 Y116.930 E0.01688
G1 X90.070 Y96.140 E0.92641
G1 X90.070 Y96.676 E0.01688
G1 X110.324 Y116.930 E0.90253
G1 X109.789 Y116.930 E0.01688
G1 X90.070 Y97.211 E0.87865
G1 X90.070 Y97.747 E0.01688
G1 X109.253 Y116.930 E0.85477
M73 P7 R48
M73 Q7 S49
G1 X108.717 Y116.930 E0.01688
G1 X90.070 Y98.283 E0.83089
G1 X90.070 Y98.819 E0.01688
G1 X108.181 Y116.930 E0.80702
G1 X107.645 Y116.930 E0.01688
G1 X90.070 Y99.355 E0.78314
G1 X90.070 Y99.891 E0.01688
G1 X107.109 Y116.930 E0.75926
G1 X106.573 Y116.930 E0.01688
G1 X90.070 Y100.427 E0.73538
M73 Q7 S48
G1 X90.070 Y100.963 E0.01688
G1 X106.037 Y116.930 E0.71150
G1 X105.501 Y116.930 E0.01688
G1 X90.070 Y101.499 E0.68762
G1 X90.070 Y102.034 E0.01688
G1 X104.966 Y116.930 E0.66374
G1 X104.430 Y116.930 E0.01688
G1 X90.070 Y102.570 E0.63986
G1 X90.070 Y103.106 E0.01688
G1 X103.894 Y116.930 E0.61599
G1 X103.358 Y116.930 E0.01688
G1 X90.070 Y103.642 E0.59211
G1 X90.070 Y104.178 E0.01688
G1 X102.822 Y116.930 E0.56823
G1 X102.286 Y116.930 E0.01688
G1 X90.070 Y104.714 E0.54435
G1 X90.070 Y105.250 E0.01688
G1 X101.750 Y116.930 E0.52047
G1 X101.214 Y116.930 E0.01688
G1 X90.070 Y105.786 E0.49659
G1 X90.070 Y106.321 E0.01688
G1 X100.678 Y116.930 E0.47271
G1 X100.143 Y116.930 E0.01688
G1 X90.070 Y106.857 E0.44883
G1 X90.070 Y107.393 E0.01688
G1 X99.607 Y116.930 E0.42495
G1 X99.071 Y116.930 E0.01688
G1 X90.070 Y107.929 E0.40108
G1 X90.070 Y108.465 E0.01688
G1 X98.535 Y116.930 E0.37720
G1 X97.999 Y116.930 E0.01688
G1 X90.070 Y109.001 E0.35332
G1 X90.070 Y109.537 E0.01688
G1 X97.463 Y116.930 E0.32944
G1 X96.927 Y116.930 E0.01688
G1 X90.070 Y110.073 E0.30556
G1 X90.070 Y110.609 E0.01688
G1 X96.391 Y116.930 E0.28168
G1 X95.856 Y116.930 E0.01688
G1 X90.070 Y111.144 E0.25780
G1 X90.070 Y111.680 E0.01688
G1 X95.320 Y116.930 E0.23392
G1 X94.784 Y116.930 E0.01688
G1 X90.070 Y112.216 E0.21005
G1 X90.070 Y112.752 E0.01688
G1 X94.248 Y116.930 E0.18617
G1 X93.712 Y116.930 E0.01688
G1 X90.070 Y113.288 E0.16229
G1 X90.070 Y113.824 E0.01688
G1 X93.176 Y116.930 E0.13841
G1 X92.640 Y116.930 E0.01688
G1 X90.070 Y114.360 E0.11453
G1 X90.070 Y114.896 E0.01688
G1 X92.104 Y116.930 E0.09065
G1 X91.568 Y116.930 E0.01688
G1 X90.070 Y115.432 E0.06677
G1 X90.070 Y115.967 E0.01688
G1 X91.033 Y116.930 E0.04289
G1 X90.497 Y116.930 E0.01688
G1 X89.900 Y116.334 E0.02658
; stop printing object SensorCover.stl id:0 copy 0
;LAYER_CHANGE
;Z:0.4
;HEIGHT:0.2
;BEFORE_LAYER_CHANGE
G92 E0.0
;0.4


;WIPE_START
G1 F8640.000
G1 X90.497 Y116.930 E-0.19476
G1 X91.033 Y116.930 E-0.12374
G1 X90.070 Y115.967 E-0.31435
G1 X90.070 Y115.432 E-0.12374
G1 X90.662 Y116.024 E-0.19341
;WIPE_END
G1 E-0.05000 F2100.000
G1 Z0.400 F10800.000
;AFTER_LAYER_CHANGE
;0.4
M104 S240 ; set temperature
M140 S90 ; set bed temperature
; printing object SensorCover.stl id:0 copy 0
G1 Z0.600
G1 X159.811 Y104.993
G1 Z0.400
G1 E1.00000 F2100.000
M204 S800
;TYPE:External perimeter
;WIDTH:0.45
G1 F1930
G1 X147.593 Y92.775 E0.58488
G1 X89.226 Y92.775 E1.97564
G1 X89.225 Y92.225 E0.01862
G1 X147.907 Y92.225 E1.98629
M73 P8 R48
G1 X160.688 Y105.006 E0.61183
G1 X148.901 Y117.775 E0.58819
M73 Q8 S48
G1 X89.225 Y117.775 E2.01998
G1 X89.225 Y117.225 E0.01862
G1 X148.599 Y117.225 E2.00974
G1 X159.771 Y105.037 E0.55963
M204 S1000
G1 X160.146 Y104.774 F10800.000
G1 X160.184 Y105.070
;TYPE:Gap fill
;WIDTH:0.289476
G1 F1930
G1 X154.478 Y111.274 E0.17280
;WIDTH:0.260208
G1
G1 X148.771 Y117.477 E0.15229
;WIDTH:0.230942
G1
G1 X148.751 Y117.486 E0.00034
;WIDTH:0.2135
G1
G1 X148.689 Y117.500 E0.00091
;WIDTH:0.185842
G1
G1 X89.429 Y117.500 E0.70425
;WIPE_START
G1 F8640.000
G1 X93.543 Y117.500 E-0.95000
;WIPE_END
G1 E-0.05000 F2100.000
G1 Z0.600 F10800.000
G1 X89.429 Y92.500
G1 Z0.400
G1 E1.00000 F2100.000
G1 F1930
G1 X147.678 Y92.500 E0.69222
G1 X147.780 Y92.530 E0.00127
G1 X160.165 Y104.915 E0.20815
G1 X160.194 Y104.965 E0.00069
;WIDTH:0.30755
G1
G1 X160.222 Y105.016 E0.00127
G1 X160.184 Y105.070 E0.00147
; stop printing object SensorCover.stl id:0 copy 0
;LAYER_CHANGE
;Z:0.438766
;HEIGHT:0.038766
;BEFORE_LAYER_CHANGE
G92 E0.0
;0.438766


;WIPE_START
G1 F8640.000
G1 X160.222 Y105.016 E-0.01546
G1 X160.194 Y104.965 E-0.01334
;WIPE_END
G1 E-0.97120 F2100.000
G1 Z0.600 F10800.000
;AFTER_LAYER_CHANGE
;0.438766
; printing object SensorCover.stl id:0 copy 0
G1 X87.949 Y118.842
G1 Z0.439
G1 E1.00000 F2100.000
;TYPE:Support material
;WIDTH:0.35
;HEIGHT:0.238766
G1 F900
G1 X92.701 Y118.842 E0.14094
G1 X92.701 Y118.379 E0.01376
G1 X88.843 Y118.379 E0.11441
G1 X88.621 Y118.157 E0.00930
G1 X88.621 Y116.535 E0.04809
G1 X88.087 Y116.535 E0.01586
G1 X88.087 Y114.228 E0.06842
G1 X88.621 Y114.228 E0.01586
G1 X88.621 Y111.921 E0.06842
G1 X88.087 Y111.921 E0.01586
G1 X88.087 Y109.614 E0.06842
G1 X88.621 Y109.614 E0.01586
G1 X88.621 Y107.307 E0.06842
G1 X88.087 Y107.307 E0.01586
G1 X88.087 Y105.000 E0.06842
G1 X88.621 Y105.000 E0.01586
G1 X88.621 Y102.693 E0.06842
G1 X88.087 Y102.693 E0.01586
G1 X88.087 Y100.386 E0.06842
G1 X88.621 Y100.386 E0.01586
G1 X88.621 Y98.079 E0.06842
G1 X88.087 Y98.079 E0.01586
G1 X88.087 Y95.772 E0.06842
