; generated by PrusaSlicer 2.3.3+win64 on 2021-08-09 at 10:46:02 UTC

; 

; external perimeters extrusion width = 0.45mm
; perimeters extrusion width = 0.45mm
; infill extrusion width = 0.45mm
; solid infill extrusion width = 0.45mm
; top infill extrusion width = 0.40mm
; support material extrusion width = 0.35mm
; first layer extrusion width = 0.42mm

M73 P0 R191
M73 Q0 S192
M201 X1000 Y1000 Z200 E5000 ; sets maximum accelerations, mm/sec^2
M203 X200 Y200 Z12 E120 ; sets maximum feedrates, mm/sec
M204 P1250 R1250 T1250 ; sets acceleration (P, T) and retract acceleration (R), mm/sec^2
M205 X8.00 Y8.00 Z0.40 E4.50 ; sets the jerk limits, mm/sec
M205 S0 T0 ; sets the minimum extruding and travel feed rate, mm/sec
M107
;TYPE:Custom
M862.3 P "MK3S" ; printer model check
M862.1 P0.4 ; nozzle diameter check
M115 U3.10.0 ; tell printer latest fw version
G90 ; use absolute coordinates
M83 ; extruder relative mode
M104 S230 ; set extruder temp
M140 S85 ; set bed temp
M190 S85 ; wait for bed temp
M109 S230 ; wait for extruder temp
G28 W ; home all without mesh bed level
G80 ; mesh bed leveling
G1 Y-3.0 F1000.0 ; go outside print area
G92 E0.0
G1 X60.0 E9.0 F1000.0 ; intro line
G1 X100.0 E12.5 F1000.0 ; intro line
G92 E0.0
M221 S95

; Don't change E values below. Excessive value can damage the printer.

M907 E538 ; set extruder motor current
G21 ; set units to millimeters
G90 ; use absolute coordinates
M83 ; use relative distances for extrusion
M900 K0.08 ; Filament gcode LA 1.5
M900 K45 ; Filament gcode LA 1.0
;LAYER_CHANGE
;Z:0.2
;HEIGHT:0.2
;BEFORE_LAYER_CHANGE
G92 E0.0
;0.2


G1 E-1.00000 F2100.000
G1 Z0.200 F10800.000
;AFTER_LAYER_CHANGE
;0.2
; printing object SolarPanelHolder.stl id:0 copy 0
G1 Z0.400
G1 X65.421 Y49.744
G1 Z0.200
G1 E1.00000 F2100.000
M204 S1000
;TYPE:Support material
;WIDTH:0.42
G1 F1200.000
G1 X65.421 Y160.086 E3.45971
G1 X66.176 Y160.086 E0.02365
G1 X66.176 Y49.914 E3.45439
G1 X66.930 Y49.914 E0.02365
G1 X66.930 Y160.086 E3.45439
G1 X67.684 Y160.086 E0.02365
G1 X67.684 Y49.914 E3.45439
G1 X68.438 Y49.914 E0.02365
G1 X68.438 Y160.086 E3.45439
G1 X69.192 Y160.086 E0.02365
G1 X69.192 Y49.914 E3.45439
G1 X69.946 Y49.914 E0.02365
G1 X69.946 Y160.086 E3.45439
G1 X70.701 Y160.086 E0.02365
G1 X70.701 Y49.914 E3.45439
M73 Q0 S191
G1 X71.455 Y49.914 E0.02365
G1 X71.455 Y160.086 E3.45439
M73 P0 R190
G1 X72.209 Y160.086 E0.02365
G1 X72.209 Y49.914 E3.45439
G1 X72.963 Y49.914 E0.02365
G1 X72.963 Y160.086 E3.45439
G1 X73.717 Y160.086 E0.02365
G1 X73.717 Y49.914 E3.45439
G1 X74.471 Y49.914 E0.02365
G1 X74.471 Y160.086 E3.45439
G1 X75.226 Y160.086 E0.02365
G1 X75.226 Y49.914 E3.45439
G1 X75.980 Y49.914 E0.02365
G1 X75.980 Y160.086 E3.45439
G1 X76.734 Y160.086 E0.02365
G1 X76.734 Y49.914 E3.45439
G1 X77.488 Y49.914 E0.02365
G1 X77.488 Y160.086 E3.45439
G1 X78.242 Y160.086 E0.02365
G1 X78.242 Y49.914 E3.45439
M73 Q0 S190
G1 X78.996 Y49.914 E0.02365
G1 X78.996 Y160.086 E3.45439
G1 X79.750 Y160.086 E0.02365
G1 X79.750 Y49.914 E3.45439
M73 P1 R189
M73 Q1 S190
G1 X80.505 Y49.914 E0.02365
G1 X80.505 Y160.086 E3.45439
G1 X81.259 Y160.086 E0.02365
G1 X81.259 Y49.914 E3.45439
G1 X82.013 Y49.914 E0.02365
G1 X82.013 Y160.086 E3.45439
G1 X82.767 Y160.086 E0.02365
G1 X82.767 Y49.914 E3.45439
G1 X83.521 Y49.914 E0.02365
G1 X83.521 Y160.086 E3.45439
G1 X84.275 Y160.086 E0.02365
G1 X84.275 Y49.914 E3.45439
G1 X85.030 Y49.914 E0.02365
G1 X85.030 Y160.086 E3.45439
G1 X85.784 Y160.086 E0.02365
G1 X85.784 Y49.914 E3.45439
G1 X86.538 Y49.914 E0.02365
G1 X86.538 Y160.086 E3.45439
M73 Q1 S189
G1 X87.292 Y160.086 E0.02365
G1 X87.292 Y49.914 E3.45439
M73 P1 R188
G1 X88.046 Y49.914 E0.02365
G1 X88.046 Y160.086 E3.45439
G1 X88.800 Y160.086 E0.02365
G1 X88.800 Y49.914 E3.45439
G1 X89.555 Y49.914 E0.02365
G1 X89.555 Y160.086 E3.45439
G1 X90.309 Y160.086 E0.02365
G1 X90.309 Y49.914 E3.45439
G1 X91.063 Y49.914 E0.02365
G1 X91.063 Y160.086 E3.45439
G1 X91.817 Y160.086 E0.02365
G1 X91.817 Y49.914 E3.45439
G1 X92.571 Y49.914 E0.02365
G1 X92.571 Y160.086 E3.45439
G1 X93.325 Y160.086 E0.02365
G1 X93.325 Y49.914 E3.45439
G1 X94.079 Y49.914 E0.02365
G1 X94.079 Y160.086 E3.45439
G1 X94.834 Y160.086 E0.02365
G1 X94.834 Y49.914 E3.45439
M73 Q1 S188
G1 X95.588 Y49.914 E0.02365
G1 X95.588 Y160.086 E3.45439
M73 P2 R187
M73 Q2 S188
G1 X96.342 Y160.086 E0.02365
G1 X96.342 Y49.914 E3.45439
G1 X97.096 Y49.914 E0.02365
G1 X97.096 Y160.086 E3.45439
G1 X97.850 Y160.086 E0.02365
G1 X97.850 Y49.914 E3.45439
G1 X98.604 Y49.914 E0.02365
G1 X98.604 Y160.086 E3.45439
G1 X99.359 Y160.086 E0.02365
G1 X99.359 Y49.914 E3.45439
G1 X100.113 Y49.914 E0.02365
G1 X100.113 Y160.086 E3.45439
G1 X100.867 Y160.086 E0.02365
G1 X100.867 Y49.914 E3.45439
G1 X101.621 Y49.914 E0.02365
G1 X101.621 Y160.086 E3.45439
G1 X102.375 Y160.086 E0.02365
G1 X102.375 Y49.914 E3.45439
G1 X103.129 Y49.914 E0.02365
G1 X103.129 Y160.086 E3.45439
M73 Q2 S187
G1 X103.884 Y160.086 E0.02365
G1 X103.884 Y49.914 E3.45439
M73 P2 R186
G1 X104.638 Y49.914 E0.02365
G1 X104.638 Y160.086 E3.45439
G1 X105.392 Y160.086 E0.02365
G1 X105.392 Y49.914 E3.45439
G1 X106.146 Y49.914 E0.02365
G1 X106.146 Y160.086 E3.45439
G1 X106.900 Y160.086 E0.02365
G1 X106.900 Y49.914 E3.45439
G1 X107.654 Y49.914 E0.02365
G1 X107.654 Y160.086 E3.45439
G1 X108.408 Y160.086 E0.02365
G1 X108.409 Y49.914 E3.45439
G1 X109.163 Y49.914 E0.02365
G1 X109.163 Y160.086 E3.45439
G1 X109.917 Y160.086 E0.02365
G1 X109.917 Y49.914 E3.45439
G1 X110.671 Y49.914 E0.02365
G1 X110.671 Y160.086 E3.45439
M73 P3 R186
M73 Q3 S187
G1 X111.425 Y160.086 E0.02365
G1 X111.425 Y49.914 E3.45439
M73 Q3 S186
G1 X112.179 Y49.914 E0.02365
G1 X112.179 Y160.086 E3.45439
M73 P3 R185
G1 X112.933 Y160.086 E0.02365
G1 X112.933 Y49.914 E3.45439
G1 X113.688 Y49.914 E0.02365
G1 X113.688 Y160.086 E3.45439
G1 X114.442 Y160.086 E0.02365
G1 X114.442 Y49.914 E3.45439
G1 X115.196 Y49.914 E0.02365
G1 X115.196 Y160.256 E3.45971
G1 X138.575 Y160.256 F10800.000
G1 F1200.000
G1 X138.575 Y119.263 E1.28530
G1 X137.821 Y119.263 E0.02365
G1 X137.821 Y160.086 E1.27998
G1 X137.067 Y160.086 E0.02365
G1 X137.067 Y119.263 E1.27998
G1 X136.312 Y119.263 E0.02365
G1 X136.312 Y160.086 E1.27998
G1 X135.558 Y160.086 E0.02365
G1 X135.558 Y119.263 E1.27998
G1 X134.804 Y119.263 E0.02365
G1 X134.804 Y160.086 E1.27998
G1 X134.050 Y160.086 E0.02365
G1 X134.050 Y119.263 E1.27998
G1 X133.296 Y119.263 E0.02365
G1 X133.296 Y160.086 E1.27998
G1 X132.542 Y160.086 E0.02365
G1 X132.542 Y119.263 E1.27998
G1 X131.787 Y119.263 E0.02365
G1 X131.787 Y160.086 E1.27998
G1 X131.033 Y160.086 E0.02365
G1 X131.033 Y119.263 E1.27998
G1 X130.279 Y119.263 E0.02365
G1 X130.279 Y160.086 E1.27998
G1 X129.525 Y160.086 E0.02365
G1 X129.525 Y119.263 E1.27998
M73 Q3 S185
G1 X128.771 Y119.263 E0.02365
G1 X128.771 Y160.086 E1.27998
G1 X128.017 Y160.086 E0.02365
G1 X128.017 Y119.263 E1.27998
G1 X127.262 Y119.263 E0.02365
G1 X127.262 Y160.086 E1.27998
M73 P3 R184
G1 X126.508 Y160.086 E0.02365
G1 X126.508 Y119.263 E1.27998
G1 X125.754 Y119.263 E0.02365
G1 X125.754 Y160.086 E1.27998
G1 X125.000 Y160.086 E0.02365
G1 X125.000 Y119.263 E1.27998
G1 X124.246 Y119.263 E0.02365
G1 X124.246 Y160.086 E1.27998
G1 X123.492 Y160.086 E0.02365
G1 X123.492 Y119.263 E1.27998
G1 X122.738 Y119.263 E0.02365
G1 X122.738 Y160.086 E1.27998
G1 X121.983 Y160.086 E0.02365
G1 X121.983 Y119.263 E1.27998
G1 X121.229 Y119.263 E0.02365
G1 X121.229 Y160.086 E1.27998
G1 X120.475 Y160.086 E0.02365
G1 X120.475 Y119.263 E1.27998
G1 X119.721 Y119.263 E0.02365
G1 X119.721 Y160.086 E1.27998
G1 X118.967 Y160.086 E0.02365
G1 X118.967 Y119.263 E1.27998
G1 X118.213 Y119.263 E0.02365
G1 X118.213 Y160.086 E1.27998
G1 X117.458 Y160.086 E0.02365
G1 X117.458 Y119.263 E1.27998
G1 X116.704 Y119.263 E0.02365
G1 X116.704 Y160.086 E1.27998
G1 X115.950 Y160.086 E0.02365
G1 X115.950 Y119.094 E1.28530
;WIPE_START
G1 F8640.000
G1 X115.950 Y123.208 E-0.95000
;WIPE_END
G1 E-0.05000 F2100.000
G1 Z0.400 F10800.000
G1 X115.950 Y90.906
G1 Z0.200
G1 E1.00000 F2100.000
G1 F1200.000
G1 X115.950 Y49.914 E1.28530
G1 X116.704 Y49.914 E0.02365
G1 X116.704 Y90.737 E1.27998
G1 X117.458 Y90.737 E0.02365
G1 X117.458 Y49.914 E1.27998
G1 X118.213 Y49.914 E0.02365
G1 X118.213 Y90.737 E1.27998
G1 X118.967 Y90.737 E0.02365
G1 X118.967 Y49.914 E1.27998
G1 X119.721 Y49.914 E0.02365
G1 X119.721 Y90.737 E1.27998
G1 X120.475 Y90.737 E0.02365
G1 X120.475 Y49.914 E1.27998
M73 P4 R184
G1 X121.229 Y49.914 E0.02365
G1 X121.229 Y90.737 E1.27998
M73 Q4 S185
G1 X121.983 Y90.737 E0.02365
G1 X121.983 Y49.914 E1.27998
G1 X122.738 Y49.914 E0.02365
G1 X122.738 Y90.737 E1.27998
G1 X123.492 Y90.737 E0.02365
G1 X123.492 Y49.914 E1.27998
M73 Q4 S184
G1 X124.246 Y49.914 E0.02365
G1 X124.246 Y90.737 E1.27998
G1 X125.000 Y90.737 E0.02365
G1 X125.000 Y49.914 E1.27998
G1 X125.754 Y49.914 E0.02365
G1 X125.754 Y90.737 E1.27998
M73 P4 R183
G1 X126.508 Y90.737 E0.02365
G1 X126.508 Y49.914 E1.27998
G1 X127.262 Y49.914 E0.02365
G1 X127.262 Y90.737 E1.27998
G1 X128.017 Y90.737 E0.02365
G1 X128.017 Y49.914 E1.27998
G1 X128.771 Y49.914 E0.02365
G1 X128.771 Y90.737 E1.27998
G1 X129.525 Y90.737 E0.02365
G1 X129.525 Y49.914 E1.27998
G1 X130.279 Y49.914 E0.02365
G1 X130.279 Y90.737 E1.27998
G1 X131.033 Y90.737 E0.02365
G1 X131.033 Y49.914 E1.27998
G1 X131.787 Y49.914 E0.02365
G1 X131.787 Y90.737 E1.27998
G1 X132.542 Y90.737 E0.02365
G1 X132.542 Y49.914 E1.27998
G1 X133.296 Y49.914 E0.02365
G1 X133.296 Y90.737 E1.27998
G1 X134.050 Y90.737 E0.02365
G1 X134.050 Y49.914 E1.27998
G1 X134.804 Y49.914 E0.02365
G1 X134.804 Y90.737 E1.27998
G1 X135.558 Y90.737 E0.02365
G1 X135.558 Y49.914 E1.27998
G1 X136.312 Y49.914 E0.02365
G1 X136.312 Y90.737 E1.27998
G1 X137.067 Y90.737 E0.02365
G1 X137.067 Y49.914 E1.27998
G1 X137.821 Y49.914 E0.02365
G1 X137.821 Y90.737 E1.27998
G1 X138.575 Y90.737 E0.02365
G1 X138.575 Y49.914 E1.27998
G1 X139.329 Y49.914 E0.02365
G1 X139.329 Y160.086 E3.45439
G1 X140.083 Y160.086 E0.02365
G1 X140.083 Y49.914 E3.45439
G1 X140.837 Y49.914 E0.02365
G1 X140.837 Y160.086 E3.45439
M73 Q4 S183
G1 X141.591 Y160.086 E0.02365
G1 X141.592 Y49.914 E3.45439
G1 X142.346 Y49.914 E0.02365
G1 X142.346 Y160.086 E3.45439
M73 P4 R182
G1 X143.100 Y160.086 E0.02365
G1 X143.100 Y49.914 E3.45439
G1 X143.854 Y49.914 E0.02365
G1 X143.854 Y160.086 E3.45439
G1 X144.608 Y160.086 E0.02365
G1 X144.608 Y49.914 E3.45439
G1 X145.362 Y49.914 E0.02365
G1 X145.362 Y160.086 E3.45439
G1 X146.116 Y160.086 E0.02365
G1 X146.116 Y49.914 E3.45439
G1 X146.871 Y49.914 E0.02365
G1 X146.871 Y160.086 E3.45439
G1 X147.625 Y160.086 E0.02365
G1 X147.625 Y49.914 E3.45439
M73 P5 R182
M73 Q5 S183
G1 X148.379 Y49.914 E0.02365
G1 X148.379 Y160.086 E3.45439
G1 X149.133 Y160.086 E0.02365
G1 X149.133 Y49.914 E3.45439
M73 Q5 S182
G1 X149.887 Y49.914 E0.02365
G1 X149.887 Y160.086 E3.45439
M73 P5 R181
G1 X150.641 Y160.086 E0.02365
G1 X150.641 Y49.914 E3.45439
G1 X151.396 Y49.914 E0.02365
G1 X151.396 Y160.086 E3.45439
G1 X152.150 Y160.086 E0.02365
G1 X152.150 Y49.914 E3.45439
G1 X152.904 Y49.914 E0.02365
G1 X152.904 Y160.086 E3.45439
G1 X153.658 Y160.086 E0.02365
G1 X153.658 Y49.914 E3.45439
G1 X154.412 Y49.914 E0.02365
G1 X154.412 Y160.086 E3.45439
G1 X155.166 Y160.086 E0.02365
G1 X155.166 Y49.914 E3.45439
G1 X155.921 Y49.914 E0.02365
G1 X155.921 Y160.086 E3.45439
G1 X156.675 Y160.086 E0.02365
G1 X156.675 Y49.914 E3.45439
G1 X157.429 Y49.914 E0.02365
G1 X157.429 Y160.086 E3.45439
M73 Q5 S181
G1 X158.183 Y160.086 E0.02365
G1 X158.183 Y49.914 E3.45439
M73 P5 R180
G1 X158.937 Y49.914 E0.02365
G1 X158.937 Y160.086 E3.45439
G1 X159.691 Y160.086 E0.02365
G1 X159.691 Y49.914 E3.45439
G1 X160.445 Y49.914 E0.02365
G1 X160.445 Y160.086 E3.45439
G1 X161.200 Y160.086 E0.02365
G1 X161.200 Y49.914 E3.45439
G1 X161.954 Y49.914 E0.02365
G1 X161.954 Y160.086 E3.45439
G1 X162.708 Y160.086 E0.02365
G1 X162.708 Y49.914 E3.45439
G1 X163.462 Y49.914 E0.02365
G1 X163.462 Y160.086 E3.45439
M73 P6 R180
M73 Q6 S181
G1 X164.216 Y160.086 E0.02365
G1 X164.216 Y49.914 E3.45439
G1 X164.970 Y49.914 E0.02365
G1 X164.970 Y160.086 E3.45439
G1 X165.725 Y160.086 E0.02365
G1 X165.725 Y49.914 E3.45439
M73 Q6 S180
G1 X166.479 Y49.914 E0.02365
G1 X166.479 Y160.086 E3.45439
M73 P6 R179
G1 X167.233 Y160.086 E0.02365
G1 X167.233 Y49.914 E3.45439
G1 X167.987 Y49.914 E0.02365
G1 X167.987 Y160.086 E3.45439
G1 X168.741 Y160.086 E0.02365
G1 X168.741 Y49.914 E3.45439
G1 X169.495 Y49.914 E0.02365
G1 X169.495 Y160.086 E3.45439
G1 X170.250 Y160.086 E0.02365
G1 X170.250 Y49.914 E3.45439
G1 X171.004 Y49.914 E0.02365
G1 X171.004 Y160.086 E3.45439
G1 X171.758 Y160.086 E0.02365
G1 X171.758 Y49.914 E3.45439
G1 X172.512 Y49.914 E0.02365
G1 X172.512 Y160.086 E3.45439
G1 X173.266 Y160.086 E0.02365
G1 X173.266 Y49.914 E3.45439
G1 X174.020 Y49.914 E0.02365
G1 X174.020 Y160.086 E3.45439
M73 Q6 S179
G1 X174.774 Y160.086 E0.02365
G1 X174.774 Y49.914 E3.45439
M73 P6 R178
G1 X175.529 Y49.914 E0.02365
G1 X175.529 Y160.086 E3.45439
G1 X176.283 Y160.086 E0.02365
G1 X176.283 Y49.914 E3.45439
G1 X177.037 Y49.914 E0.02365
G1 X177.037 Y160.086 E3.45439
G1 X177.791 Y160.086 E0.02365
G1 X177.791 Y49.914 E3.45439
G1 X178.545 Y49.914 E0.02365
G1 X178.545 Y160.086 E3.45439
M73 P7 R178
G1 X179.299 Y160.086 E0.02365
G1 X179.299 Y49.914 E3.45439
M73 Q7 S179
G1 X180.054 Y49.914 E0.02365
G1 X180.054 Y160.086 E3.45439
G1 X180.808 Y160.086 E0.02365
G1 X180.808 Y49.914 E3.45439
G1 X181.562 Y49.914 E0.02365
G1 X181.562 Y160.086 E3.45439
M73 Q7 S178
G1 X182.316 Y160.086 E0.02365
G1 X182.316 Y49.914 E3.45439
G1 X183.070 Y49.914 E0.02365
G1 X183.070 Y160.086 E3.45439
M73 P7 R177
G1 X183.824 Y160.086 E0.02365
G1 X183.824 Y49.914 E3.45439
G1 X184.579 Y49.914 E0.02365
G1 X184.579 Y160.256 E3.45971
;WIPE_START
G1 F8640.000
G1 X184.579 Y156.142 E-0.95000
;WIPE_END
G1 E-0.05000 F2100.000
G1 Z0.400 F10800.000
G1 X187.595 Y163.256
G1 Z0.200
G1 E1.00000 F2100.000
G1 F1200.000
G1 X187.595 Y162.914 E0.01074
G1 X186.841 Y162.914 E0.02365
G1 X186.841 Y163.086 E0.00542
G1 X186.087 Y163.086 E0.02365
G1 X186.087 Y162.914 E0.00542
G1 X185.333 Y162.914 E0.02365
G1 X185.333 Y163.086 E0.00542
G1 X184.579 Y163.086 E0.02365
G1 X184.579 Y162.914 E0.00542
G1 X183.824 Y162.914 E0.02365
G1 X183.824 Y163.086 E0.00542
G1 X183.070 Y163.086 E0.02365
G1 X183.070 Y162.914 E0.00542
G1 X182.316 Y162.914 E0.02365
G1 X182.316 Y163.086 E0.00542
G1 X181.562 Y163.086 E0.02365
G1 X181.562 Y162.914 E0.00542
G1 X180.808 Y162.914 E0.02365
G1 X180.808 Y163.086 E0.00542
G1 X180.054 Y163.086 E0.02365
G1 X180.054 Y162.914 E0.00542
G1 X179.299 Y162.914 E0.02365
G1 X179.299 Y163.086 E0.00542
G1 X178.545 Y163.086 E0.02365
G1 X178.545 Y162.914 E0.00542
G1 X177.791 Y162.914 E0.02365
G1 X177.791 Y163.086 E0.00542
G1 X177.037 Y163.086 E0.02365
G1 X177.037 Y162.914 E0.00542
G1 X176.283 Y162.914 E0.02365
G1 X176.283 Y163.086 E0.00542
G1 X175.529 Y163.086 E0.02365
G1 X175.529 Y162.914 E0.00542
G1 X174.774 Y162.914 E0.02365
G1 X174.774 Y163.086 E0.00542
G1 X174.020 Y163.086 E0.02365
G1 X174.020 Y162.914 E0.00542
G1 X173.266 Y162.914 E0.02365
G1 X173.266 Y163.086 E0.00542
G1 X172.512 Y163.086 E0.02365
G1 X172.512 Y162.914 E0.00542
G1 X171.758 Y162.914 E0.02365
G1 X171.758 Y163.086 E0.00542
G1 X171.004 Y163.086 E0.02365
G1 X171.004 Y162.914 E0.00542
G1 X170.250 Y162.914 E0.02365
G1 X170.250 Y163.086 E0.00542
G1 X169.495 Y163.086 E0.02365
G1 X169.495 Y162.914 E0.00542
G1 X168.741 Y162.914 E0.02365
G1 X168.741 Y163.086 E0.00542
G1 X167.987 Y163.086 E0.02365
G1 X167.987 Y162.914 E0.00542
G1 X167.233 Y162.914 E0.02365
G1 X167.233 Y163.086 E0.00542
G1 X166.479 Y163.086 E0.02365
G1 X166.479 Y162.914 E0.00542
G1 X165.725 Y162.914 E0.02365
G1 X165.725 Y163.086 E0.00542
G1 X164.970 Y163.086 E0.02365
G1 X164.970 Y162.914 E0.00542
G1 X164.216 Y162.914 E0.02365
G1 X164.216 Y163.086 E0.00542
G1 X163.462 Y163.086 E0.02365
G1 X163.462 Y162.914 E0.00542
G1 X162.708 Y162.914 E0.02365
G1 X162.708 Y163.086 E0.00542
G1 X161.954 Y163.086 E0.02365
G1 X161.954 Y162.914 E0.00542
G1 X161.200 Y162.914 E0.02365
G1 X161.200 Y163.086 E0.00542
G1 X160.445 Y163.086 E0.02365
G1 X160.445 Y162.914 E0.00542
G1 X159.691 Y162.914 E0.02365
G1 X159.691 Y163.086 E0.00542
